findly-builder/apps/searchassist/src/assets/icons/sidemenu/new-icons/weights-active.svg

<svg width="12" height="13" viewBox="0 0 12 13" fill="none" xmlns="http://www.w3.org/2000/svg">
<path d="M8.5 0C7.85156 0 7.30078 0.421875 7.09375 1H0V2H7.09375C7.30078 2.57812 7.85156 3 8.5 3C9.14844 3 9.69922 2.57812 9.90625 2H12V1H9.90625C9.69922 0.421875 9.14844 0 8.5 0ZM8.5 1C8.78125 1 9 1.21875 9 1.5C9 1.78125 8.78125 2 8.5 2C8.21875 2 8 1.78125 8 1.5C8 1.21875 8.21875 1 8.5 1ZM3.5 5C2.85156 5 2.30078 5.42188 2.09375 6H0V7H2.09375C2.30078 7.57812 2.85156 8 3.5 8C4.14844 8 4.69922 7.57812 4.90625 7H12V6H4.90625C4.69922 5.42188 4.14844 5 3.5 5ZM3.5 6C3.78125 6 4 6.21875 4 6.5C4 6.78125 3.78125 7 3.5 7C3.21875 7 3 6.78125 3 6.5C3 6.21875 3.21875 6 3.5 6ZM8.5 10C7.85156 10 7.30078 10.4219 7.09375 11H0V12H7.09375C7.30078 12.5781 7.85156 13 8.5 13C9.14844 13 9.69922 12.5781 9.90625 12H12V11H9.90625C9.69922 10.4219 9.14844 10 8.5 10ZM8.5 11C8.78125 11 9 11.2188 9 11.5C9 11.7812 8.78125 12 8.5 12C8.21875 12 8 11.7812 8 11.5C8 11.2188 8.21875 11 8.5 11Z" fill="#0D6EFD"/>
</svg>

<svg width="12" height="13" fill="none" xmlns="http://www.w3.org/2000/svg"><path d="M8.5 0a1.5 1.5 0 0 0-1.406 1H0v1h7.094c.207.578.758 1 1.406 1a1.5 1.5 0 0 0 1.406-1H12V1H9.906A1.5 1.5 0 0 0 8.5 0Zm0 1c.281 0 .5.219.5.5s-.219.5-.5.5a.494.494 0 0 1-.5-.5c0-.281.219-.5.5-.5Zm-5 4a1.5 1.5 0 0 0-1.406 1H0v1h2.094c.207.578.758 1 1.406 1a1.5 1.5 0 0 0 1.406-1H12V6H4.906A1.5 1.5 0 0 0 3.5 5Zm0 1c.281 0 .5.219.5.5s-.219.5-.5.5a.494.494 0 0 1-.5-.5c0-.281.219-.5.5-.5Zm5 4a1.5 1.5 0 0 0-1.406 1H0v1h7.094c.207.578.758 1 1.406 1a1.5 1.5 0 0 0 1.406-1H12v-1H9.906c-.207-.578-.758-1-1.406-1Zm0 1c.281 0 .5.219.5.5s-.219.5-.5.5a.494.494 0 0 1-.5-.5c0-.281.219-.5.5-.5Z" fill="#0D6EFD"/></svg>
